src/assets/images/expertise/angular.svg

<svg fill="none" height="91" width="85" xmlns="http://www.w3.org/2000/svg"><g opacity=".6"><path d="m42.539 56.287h11.187l5.3 13.226h9.874l-26.361-59.11v.046-10.055l42.169 15.036-6.432 55.76-35.737 19.793z" fill="#1f3d56"/><path d="m50.239 48.134h-7.7v-18.526z" fill="#1f3d56"/><g fill="#335878"><path d="m42.538 56.287h-11.188l-5.3 13.226h-9.874l26.362-59.11v.046-10.055l-42.17 15.036 6.432 55.76 35.738 19.794z"/><path d="m34.838 48.134h7.7v-18.526z"/></g></g></svg>

<svg width="85" height="91" fill="none" xmlns="http://www.w3.org/2000/svg"><g opacity=".6"><path d="M42.539 56.287h11.187l5.3 13.226H68.9l-26.361-59.11v.046V.394L84.708 15.43 78.276 71.19 42.539 90.983V56.287z" fill="#1F3D56"/><path d="M50.239 48.134h-7.7V29.608l7.7 18.526z" fill="#1F3D56"/><path d="M42.538 56.287H31.35l-5.3 13.226h-9.874l26.362-59.11v.046V.394L.368 15.43 6.8 71.19l35.738 19.794V56.287z" fill="#335878"/><path d="M34.838 48.134h7.7V29.608l-7.7 18.526z" fill="#335878"/></g></svg>
